assets/image/built-for-linux.svg

<svg xmlns="http://www.w3.org/2000/svg" width="184.52" height="35" viewBox="0 0 184.52 35"><path d="M0 0h108.05v35H0z" class="svg__rect"/><path fill="#FFF" d="M106.05 0h78.47v35h-78.47z" class="svg__rect"/><path fill="#FFF" d="M17.33 22h-3.11v-8.53h2.92q1.45 0 2.2.58.76.58.76 1.73 0 .58-.32 1.05-.31.47-.92.73.69.19 1.07.7.38.52.38 1.25 0 1.2-.78 1.85-.77.64-2.2.64Zm-1.63-3.85v2.67h1.65q.69 0 1.09-.35.39-.34.39-.96 0-1.33-1.36-1.36H15.7Zm0-3.49v2.4h1.45q.69 0 1.08-.31.39-.32.39-.89 0-.63-.36-.91-.36-.29-1.12-.29H15.7Zm8.94 4.5v-5.69h1.48v5.71q0 .85.43 1.3.43.45 1.28.45 1.71 0 1.71-1.8v-5.66h1.48v5.7q0 1.36-.87 2.15-.87.8-2.32.8-1.47 0-2.33-.79-.86-.78-.86-2.17ZM37.15 22h-1.48v-8.53h1.48V22Zm10.17 0h-5.36v-8.53h1.48v7.35h3.88V22Zm5.8-7.34h-2.63v-1.19h6.76v1.19h-2.66V22h-1.47v-7.34ZM68.47 22h-1.48v-8.53h5.42v1.19h-3.94v2.54h3.43v1.18h-3.43V22Zm7.83-4v-.48q0-1.24.44-2.2.44-.95 1.25-1.46.8-.51 1.85-.51 1.04 0 1.84.5.81.5 1.25 1.44.44.94.45 2.19v.48q0 1.25-.44 2.2-.43.94-1.24 1.45-.8.51-1.85.51-1.04 0-1.85-.51t-1.25-1.44q-.45-.94-.45-2.17Zm1.48-.54v.5q0 1.4.55 2.17t1.52.77q.98 0 1.51-.75t.53-2.19v-.45q0-1.42-.53-2.17-.54-.76-1.52-.76-.96 0-1.51.75-.54.76-.55 2.13ZM89.32 22h-1.48v-8.53h3q1.48 0 2.28.66.8.66.8 1.92 0 .85-.41 1.43t-1.15.89l1.91 3.55V22h-1.58l-1.72-3.29h-1.65V22Zm0-7.34v2.86h1.53q.75 0 1.17-.37.42-.38.42-1.04 0-.68-.39-1.06-.39-.37-1.16-.39h-1.57Z" class="svg__text"/><path d="M126.62 22h-6.38v-8.4h2.38v6.51h4V22Zm6.8 0h-2.38v-8.4h2.38V22Zm7.51 0h-2.33v-8.4h1.95l3.71 4.47V13.6h2.33V22h-1.95l-3.71-4.48V22Zm10.75-3.74V13.6h2.38v4.59q0 2.01 1.59 2.01 1.58 0 1.58-2.01V13.6h2.35v4.66q0 1.87-1.04 2.89t-2.91 1.02q-1.88 0-2.91-1.02-1.04-1.02-1.04-2.89ZM166.52 22h-2.72l3.06-4.25-2.93-4.15h2.68l1.68 2.42 1.65-2.42h2.58l-2.93 4.06 3.12 4.34h-2.74l-1.74-2.6-1.71 2.6Z" class="svg__text"/></svg>

<svg xmlns="http://www.w3.org/2000/svg" width="184.52" height="35" viewBox="0 0 184.52 35"><rect class="svg__rect" x="0" y="0" width="108.05" height="35" fill="#000000"/><rect class="svg__rect" x="106.05" y="0" width="78.47000000000001" height="35" fill="#FFFFFF"/><path class="svg__text" d="M17.33 22L14.22 22L14.22 13.47L17.14 13.47Q18.59 13.47 19.34 14.05Q20.10 14.63 20.10 15.78L20.10 15.78Q20.10 16.36 19.78 16.83Q19.47 17.30 18.86 17.56L18.86 17.56Q19.55 17.75 19.93 18.26Q20.31 18.78 20.31 19.51L20.31 19.51Q20.31 20.71 19.53 21.36Q18.76 22 17.33 22L17.33 22ZM15.70 18.15L15.70 20.82L17.35 20.82Q18.04 20.82 18.44 20.47Q18.83 20.13 18.83 19.51L18.83 19.51Q18.83 18.18 17.47 18.15L17.47 18.15L15.70 18.15ZM15.70 14.66L15.70 17.06L17.15 17.06Q17.84 17.06 18.23 16.75Q18.62 16.43 18.62 15.86L18.62 15.86Q18.62 15.23 18.26 14.95Q17.90 14.66 17.14 14.66L17.14 14.66L15.70 14.66ZM24.64 19.16L24.64 19.16L24.64 13.47L26.12 13.47L26.12 19.18Q26.12 20.03 26.55 20.48Q26.98 20.93 27.83 20.93L27.83 20.93Q29.54 20.93 29.54 19.13L29.54 19.13L29.54 13.47L31.02 13.47L31.02 19.17Q31.02 20.53 30.15 21.32Q29.28 22.12 27.83 22.12L27.83 22.12Q26.36 22.12 25.50 21.33Q24.64 20.55 24.64 19.16ZM37.15 22L35.67 22L35.67 13.47L37.15 13.47L37.15 22ZM47.32 22L41.96 22L41.96 13.47L43.44 13.47L43.44 20.82L47.32 20.82L47.32 22ZM53.12 14.66L50.49 14.66L50.49 13.47L57.25 13.47L57.25 14.66L54.59 14.66L54.59 22L53.12 22L53.12 14.66ZM68.47 22L66.99 22L66.99 13.47L72.41 13.47L72.41 14.66L68.47 14.66L68.47 17.20L71.90 17.20L71.90 18.38L68.47 18.38L68.47 22ZM76.30 18.00L76.30 18.00L76.30 17.52Q76.30 16.28 76.74 15.32Q77.18 14.37 77.99 13.86Q78.79 13.35 79.84 13.35Q80.88 13.35 81.68 13.85Q82.49 14.35 82.93 15.29Q83.37 16.23 83.38 17.48L83.38 17.48L83.38 17.96Q83.38 19.21 82.94 20.16Q82.51 21.10 81.70 21.61Q80.90 22.12 79.85 22.12L79.85 22.12Q78.81 22.12 78.00 21.61Q77.19 21.10 76.75 20.17Q76.30 19.23 76.30 18.00ZM77.78 17.46L77.78 17.96Q77.78 19.36 78.33 20.13Q78.88 20.90 79.85 20.90L79.85 20.90Q80.83 20.90 81.36 20.15Q81.89 19.40 81.89 17.96L81.89 17.96L81.89 17.51Q81.89 16.09 81.36 15.34Q80.82 14.58 79.84 14.58L79.84 14.58Q78.88 14.58 78.33 15.33Q77.79 16.09 77.78 17.46L77.78 17.46ZM89.32 22L87.84 22L87.84 13.47L90.84 13.47Q92.32 13.47 93.12 14.13Q93.92 14.79 93.92 16.05L93.92 16.05Q93.92 16.90 93.51 17.48Q93.10 18.06 92.36 18.37L92.36 18.37L94.27 21.92L94.27 22L92.69 22L90.97 18.71L89.32 18.71L89.32 22ZM89.32 14.66L89.32 17.52L90.85 17.52Q91.60 17.52 92.02 17.15Q92.44 16.77 92.44 16.11L92.44 16.11Q92.44 15.43 92.05 15.05Q91.66 14.68 90.89 14.66L90.89 14.66L89.32 14.66Z" fill="#FFFFFF"/><path class="svg__text" d="M126.62 22L120.24 22L120.24 13.60L122.62 13.60L122.62 20.11L126.62 20.11L126.62 22ZM133.42 22L131.04 22L131.04 13.60L133.42 13.60L133.42 22ZM140.93 22L138.60 22L138.60 13.60L140.55 13.60L144.26 18.07L144.26 13.60L146.59 13.60L146.59 22L144.64 22L140.93 17.52L140.93 22ZM151.68 18.26L151.68 18.26L151.68 13.60L154.06 13.60L154.06 18.19Q154.06 20.20 155.65 20.20L155.65 20.20Q157.23 20.20 157.23 18.19L157.23 18.19L157.23 13.60L159.58 13.60L159.58 18.26Q159.58 20.13 158.54 21.15Q157.50 22.17 155.63 22.17L155.63 22.17Q153.75 22.17 152.72 21.15Q151.68 20.13 151.68 18.26ZM166.52 22L163.80 22L166.86 17.75L163.93 13.60L166.61 13.60L168.29 16.02L169.94 13.60L172.52 13.60L169.59 17.66L172.71 22L169.97 22L168.23 19.40L166.52 22Z" fill="#000000" x="119.05"/></svg>
